X:511
M:C
L:1/8
K:F
c|~f>g f<d c>dc>A|~f>g f<d c>dA>c|~f>g f<d ~c>dc>A|d>ef>d c<A G>c|
~f>gf>d ~c>d c<A|~f>gf>d c<a A>c|f<a d>f c>df>g|a/g/f/e/ ~f>dc>d A>f||

